X:1
T: One "L" of a Girl (Alison Black)
C:Bruce Shawyer
R:Jig
I:speed 180
K:G
M:6/8
L:1/16
|:B4B2 G2B2G2|d4d2 B2d2B2|A2F2D2 A4F2|A4F2 c4A2|
B4B2 G2B2G2|d4d2 B2d2B2|A2F2D2 c4A2|D2E2F2 G6|
B2A2G2 c2B2A2|d2B2G2 A4D2|B2A2G2 c2B2A2|d2B2G2 A6|
B2A2G2 c2B2A2|d2B2G2 A4D2|E2F2G2 A2B2c2|d2c2A2 G6:|
